images/svg/webpack.svg

<?xml version="1.0" encoding="UTF-8"?>
<svg version="1.1" viewBox="0 0 400 400" xmlns="http://www.w3.org/2000/svg">
<g fill-rule="evenodd">
<path d="m156.79 121.7c-23.536 12.945-42.792 23.58-42.792 23.632 0 0.11 85.638 49.591 85.77 49.558 0.223-0.055 85.729-49.489 85.728-49.562-1e-3 -0.108-85.573-47.167-85.767-47.165-0.081 0-19.404 10.592-42.939 23.537m91.875 59.196l-42.75 24.706-0.042 45.456-0.042 45.457 1.306-0.718c0.719-0.395 19.994-10.994 42.834-23.552l41.527-22.833v-46.625c0-25.644-0.019-46.619-0.042-46.611s-19.279 11.132-42.791 24.72m-140.67 21.976v46.571l42.639 23.443c23.452 12.893 42.689 23.442 42.75 23.442s0.11-20.418 0.109-45.375l-2e-3 -45.375-42.582-24.583c-23.42-13.521-42.656-24.608-42.748-24.639-0.11-0.037-0.166 15.64-0.166 46.516" fill="#1c7cc4"/>
<path d="m205.88 57.76l0.042 29.627 46.102 25.357 46.101 25.356 24.827-14.341c13.655-7.888 25.002-14.459 25.215-14.602 0.377-0.252-1.686-1.433-70.428-40.324-38.95-22.035-71.061-40.207-71.359-40.382l-0.543-0.318 0.043 29.627m-83.458 10.673c-38.959 22.049-71.004 40.181-71.212 40.293-0.541 0.291 49.778 29.41 50.409 29.17 0.212-0.08 20.973-11.471 46.134-25.313l45.748-25.166 2e-3 -29.542c1e-3 -16.248-0.054-29.539-0.123-29.536s-32 18.046-70.958 40.094m-77.584 133.62v82.25l7.125-4.118c3.919-2.264 15.357-8.873 25.417-14.685l18.292-10.568-3e-3 -52.925-4e-3 -52.926-25.271-14.583c-13.9-8.021-25.336-14.608-25.414-14.639-0.078-0.03-0.142 36.957-0.142 82.194m284.29-67.593l-25.292 14.609v52.946 52.947l25.042 14.463c13.773 7.955 25.21 14.572 25.417 14.704l0.375 0.241v-82.269c0-45.249-0.057-82.265-0.125-82.26-0.069 5e-3 -11.507 6.584-25.417 14.619m-248.51 143.5c-14.373 8.301-26.073 15.15-26 15.22 0.153 0.147 138.34 78.316 138.67 78.442 0.178 0.068 0.217-5.469 0.217-30.489v-30.572l-42.542-23.399c-23.398-12.87-42.916-23.601-43.375-23.848l-0.833-0.448-26.133 15.094m168.6 8.768l-43.368 23.858-7e-3 30.642-8e-3 30.641 0.542-0.318c0.298-0.174 31.616-17.893 69.595-39.375l69.054-39.058-0.471-0.291c-0.775-0.482-51.918-29.992-51.945-29.974-0.014 9e-3 -19.54 10.753-43.392 23.875" fill="#8cd4fc"/>
<path d="m111.46 49.963l-88.292 49.954v100.08 100.08l88.311 49.959c48.57 27.477 88.407 49.958 88.526 49.958s39.954-22.48 88.522-49.956l88.307-49.957v-100.09-100.09l-88.307-49.957c-48.568-27.476-88.412-49.954-88.541-49.951-0.129 2e-3 -39.966 22.483-88.526 49.958m82.208 7.833v29.629l-13.625 7.493c-7.494 4.121-28.25 15.539-46.124 25.373-19.422 10.687-32.599 17.842-32.75 17.784-1.855-0.709-50.47-29.167-50.139-29.35 0.213-0.117 32.3-18.283 71.304-40.369 39.004-22.085 71.011-40.163 71.125-40.172 0.166-0.014 0.209 6.011 0.209 29.612m83.666 10.689c39.188 22.173 71.243 40.378 71.234 40.456-0.022 0.199-50.273 29.23-50.511 29.182-0.106-0.022-20.9-11.433-46.208-25.357l-46.015-25.318v-29.64c0-16.303 0.057-29.64 0.125-29.639 0.069 1e-3 32.188 18.144 71.375 40.316m-34.523 53.173c23.571 12.966 42.857 23.62 42.857 23.676s-19.331 11.266-42.957 24.91l-42.956 24.809-0.752-0.424c-5.117-2.883-85.097-49.169-85.131-49.266-0.054-0.161 85.631-47.353 85.898-47.31 0.102 0.017 19.47 10.639 43.041 23.605m-172.56 12.649l25.333 14.628 0.037 53.074 0.037 53.074-24.683 14.25c-13.575 7.838-25.047 14.463-25.494 14.722l-0.813 0.473v-82.431c0-45.337 0.056-82.428 0.125-82.425 0.068 4e-3 11.525 6.589 25.458 14.635m284.58 67.712c0 78.351-0.014 82.349-0.291 82.274-0.161-0.043-11.655-6.645-25.542-14.671l-25.25-14.593-0.042-52.989-0.042-52.989 25.458-14.692c14.002-8.081 25.515-14.692 25.584-14.692s0.125 37.058 0.125 82.352m-203.79-21.057l42.625 24.611v45.463c0 25.495-0.064 45.464-0.145 45.464-0.079 0-19.373-10.572-42.875-23.493l-42.73-23.492-0.042-46.692c-0.04-44.428-0.028-46.687 0.25-46.582 0.16 0.061 19.473 11.186 42.917 24.721m140.42 21.908l-0.042 46.703-42.667 23.462c-23.467 12.904-42.723 23.463-42.792 23.464-0.068 0-0.125-20.464-0.125-45.477v-45.477l42.709-24.677c23.489-13.573 42.764-24.683 42.833-24.689 0.069-7e-3 0.107 21.004 0.084 46.691m-141.07 83.859l43.279 23.812v30.646c0 16.856-0.063 30.646-0.139 30.646-0.3 0-139.06-78.593-139.04-78.75 0.039-0.247 52.05-30.255 52.357-30.207 0.145 0.022 19.738 10.756 43.542 23.853m168.62-8.784c14.394 8.311 26.112 15.166 26.04 15.234-0.169 0.158-138.6 78.456-138.95 78.589-0.24 0.092-0.26-2.68-0.221-30.598l0.042-30.699 43.25-23.808c23.787-13.094 43.344-23.812 43.46-23.819 0.115-6e-3 11.987 6.789 26.38 15.101" fill="#fbfbfb"/>
<path d="m193.58 57.833c0 16.363 0.019 23.057 0.043 14.875 0.024-8.181 0.024-21.568 0-29.75-0.024-8.181-0.043-1.487-0.043 14.875m161.17 144.17c0 45.329 0.019 63.873 0.043 41.208 0.023-22.664 0.023-59.752 0-82.416-0.024-22.665-0.043-4.121-0.043 41.208m-50.971-53.056c-0.155 0.155-0.141 106.02 0.014 106.11 0.068 0.042 0.125-23.841 0.125-53.074s-7e-3 -53.151-0.014-53.151c-8e-3 0-0.064 0.05-0.125 0.111m-110.28 192.19l0.083 30.784 0.042-30.658c0.024-16.862-0.014-30.715-0.083-30.784s-0.088 13.727-0.042 30.658" fill="#b6e2f9"/>
<path d="m44.749 202c0 45.329 0.019 63.873 0.043 41.208 0.023-22.664 0.023-59.752 0-82.416-0.024-22.665-0.043-4.121-0.043 41.208m63.167 0.833c0 25.713 0.019 36.232 0.042 23.375 0.024-12.856 0.024-33.893 0-46.75-0.023-12.856-0.042-2.337-0.042 23.375" fill="#9ad6f7"/>
<path d="m193.46 251.08c-0.023 24.98 0.014 45.417 0.083 45.417 0.068 0 0.125-20.437 0.125-45.417 0-24.979-0.038-45.416-0.083-45.416-0.046 0-0.102 20.437-0.125 45.416" fill="#6fa9d6"/>
</g>
</svg>

<svg id="svg" version="1.1" width="400" height="400" viewBox="0 0 400 400" xmlns="http://www.w3.org/2000/svg" xmlns:xlink="http://www.w3.org/1999/xlink" ><g id="svgg"><path id="path0" d="M156.792 121.705 C 133.256 134.650,114.000 145.285,114.000 145.337 C 114.000 145.447,199.638 194.928,199.770 194.895 C 199.993 194.840,285.499 145.406,285.498 145.333 C 285.497 145.225,199.925 98.166,199.731 98.168 C 199.650 98.168,180.327 108.760,156.792 121.705 M248.667 180.901 L 205.917 205.607 205.875 251.063 L 205.833 296.520 207.139 295.802 C 207.858 295.407,227.133 284.808,249.973 272.250 L 291.500 249.417 291.500 202.792 C 291.500 177.148,291.481 156.173,291.458 156.181 C 291.435 156.189,272.179 167.313,248.667 180.901 M108.000 202.877 L 108.000 249.448 150.639 272.891 C 174.091 285.784,193.328 296.333,193.389 296.333 C 193.450 296.333,193.499 275.915,193.498 250.958 L 193.496 205.583 150.914 181.000 C 127.494 167.479,108.258 156.392,108.166 156.361 C 108.056 156.324,108.000 172.001,108.000 202.877 " stroke="none" fill="#1c7cc4" fill-rule="evenodd"></path><path id="path1" d="M205.875 57.760 L 205.917 87.387 252.019 112.744 L 298.120 138.100 322.947 123.759 C 336.602 115.871,347.949 109.300,348.162 109.157 C 348.539 108.905,346.476 107.724,277.734 68.833 C 238.784 46.798,206.673 28.626,206.375 28.451 L 205.832 28.133 205.875 57.760 M122.417 68.433 C 83.458 90.482,51.413 108.614,51.205 108.726 C 50.664 109.017,100.983 138.136,101.614 137.896 C 101.826 137.816,122.587 126.425,147.748 112.583 L 193.496 87.417 193.498 57.875 C 193.499 41.627,193.444 28.336,193.375 28.339 C 193.306 28.342,161.375 46.385,122.417 68.433 M44.833 202.055 L 44.833 284.305 51.958 280.187 C 55.877 277.923,67.315 271.314,77.375 265.502 L 95.667 254.934 95.664 202.009 L 95.660 149.083 70.389 134.500 C 56.489 126.479,45.053 119.892,44.975 119.861 C 44.897 119.831,44.833 156.818,44.833 202.055 M329.125 134.462 L 303.833 149.071 303.833 202.017 L 303.833 254.964 328.875 269.427 C 342.648 277.382,354.085 283.999,354.292 284.131 L 354.667 284.372 354.667 202.103 C 354.667 156.854,354.610 119.838,354.542 119.843 C 354.473 119.848,343.035 126.427,329.125 134.462 M80.617 277.957 C 66.244 286.258,54.544 293.107,54.617 293.177 C 54.770 293.324,192.956 371.493,193.283 371.619 C 193.461 371.687,193.500 366.150,193.500 341.130 L 193.500 310.558 150.958 287.159 C 127.560 274.289,108.042 263.558,107.583 263.311 L 106.750 262.863 80.617 277.957 M249.216 286.725 L 205.848 310.583 205.841 341.225 L 205.833 371.866 206.375 371.548 C 206.673 371.374,237.991 353.655,275.970 332.173 L 345.024 293.115 344.553 292.824 C 343.778 292.342,292.635 262.832,292.608 262.850 C 292.594 262.859,273.068 273.603,249.216 286.725 " stroke="none" fill="#8cd4fc" fill-rule="evenodd"></path><path id="path2" d="M111.459 49.963 L 23.167 99.917 23.167 200.000 L 23.167 300.083 111.478 350.042 C 160.048 377.519,199.885 400.000,200.004 400.000 C 200.123 400.000,239.958 377.520,288.526 350.044 L 376.833 300.087 376.833 200.000 L 376.833 99.913 288.526 49.956 C 239.958 22.480,200.114 0.002,199.985 0.005 C 199.856 0.007,160.019 22.488,111.459 49.963 M193.667 57.796 L 193.667 87.425 180.042 94.918 C 172.548 99.039,151.792 110.457,133.918 120.291 C 114.496 130.978,101.319 138.133,101.168 138.075 C 99.313 137.366,50.698 108.908,51.029 108.725 C 51.242 108.608,83.329 90.442,122.333 68.356 C 161.337 46.271,193.344 28.193,193.458 28.184 C 193.624 28.170,193.667 34.195,193.667 57.796 M277.333 68.485 C 316.521 90.658,348.576 108.863,348.567 108.941 C 348.545 109.140,298.294 138.171,298.056 138.123 C 297.950 138.101,277.156 126.690,251.848 112.766 L 205.833 87.448 205.833 57.808 C 205.833 41.505,205.890 28.168,205.958 28.169 C 206.027 28.170,238.146 46.313,277.333 68.485 M242.810 121.658 C 266.381 134.624,285.667 145.278,285.667 145.334 C 285.667 145.390,266.336 156.600,242.710 170.244 L 199.754 195.053 199.002 194.629 C 193.885 191.746,113.905 145.460,113.871 145.363 C 113.817 145.202,199.502 98.010,199.769 98.053 C 199.871 98.070,219.239 108.692,242.810 121.658 M70.250 134.307 L 95.583 148.935 95.620 202.009 L 95.657 255.083 70.974 269.333 C 57.399 277.171,45.927 283.796,45.480 284.055 L 44.667 284.528 44.667 202.097 C 44.667 156.760,44.723 119.669,44.792 119.672 C 44.860 119.676,56.317 126.261,70.250 134.307 M354.833 202.019 C 354.833 280.370,354.819 284.368,354.542 284.293 C 354.381 284.250,342.887 277.648,329.000 269.622 L 303.750 255.029 303.708 202.040 L 303.666 149.051 329.124 134.359 C 343.126 126.278,354.639 119.667,354.708 119.667 C 354.777 119.667,354.833 156.725,354.833 202.019 M151.042 180.962 L 193.667 205.573 193.667 251.036 C 193.667 276.531,193.603 296.500,193.522 296.500 C 193.443 296.500,174.149 285.928,150.647 273.007 L 107.917 249.515 107.875 202.823 C 107.835 158.395,107.847 156.136,108.125 156.241 C 108.285 156.302,127.598 167.427,151.042 180.962 M291.459 202.870 L 291.417 249.573 248.750 273.035 C 225.283 285.939,206.027 296.498,205.958 296.499 C 205.890 296.499,205.833 276.035,205.833 251.022 L 205.833 205.545 248.542 180.868 C 272.031 167.295,291.306 156.185,291.375 156.179 C 291.444 156.172,291.482 177.183,291.459 202.870 M150.388 286.729 L 193.667 310.541 193.667 341.187 C 193.667 358.043,193.604 371.833,193.528 371.833 C 193.228 371.833,54.465 293.240,54.489 293.083 C 54.528 292.836,106.539 262.828,106.846 262.876 C 106.991 262.898,126.584 273.632,150.388 286.729 M319.007 277.945 C 333.401 286.256,345.119 293.111,345.047 293.179 C 344.878 293.337,206.444 371.635,206.096 371.768 C 205.856 371.860,205.836 369.088,205.875 341.170 L 205.917 310.471 249.167 286.663 C 272.954 273.569,292.511 262.851,292.627 262.844 C 292.742 262.838,304.614 269.633,319.007 277.945 " stroke="none" fill="#fbfbfb" fill-rule="evenodd"></path><path id="path3" d="M193.582 57.833 C 193.582 74.196,193.601 80.890,193.625 72.708 C 193.649 64.527,193.649 51.140,193.625 42.958 C 193.601 34.777,193.582 41.471,193.582 57.833 M354.749 202.000 C 354.749 247.329,354.768 265.873,354.792 243.208 C 354.815 220.544,354.815 183.456,354.792 160.792 C 354.768 138.127,354.749 156.671,354.749 202.000 M303.778 148.944 C 303.623 149.099,303.637 254.962,303.792 255.058 C 303.860 255.100,303.917 231.217,303.917 201.984 C 303.917 172.751,303.910 148.833,303.903 148.833 C 303.895 148.833,303.839 148.883,303.778 148.944 M193.500 341.133 L 193.583 371.917 193.625 341.259 C 193.649 324.397,193.611 310.544,193.542 310.475 C 193.473 310.406,193.454 324.202,193.500 341.133 " stroke="none" fill="#b6e2f9" fill-rule="evenodd"></path><path id="path4" d="M44.749 202.000 C 44.749 247.329,44.768 265.873,44.792 243.208 C 44.815 220.544,44.815 183.456,44.792 160.792 C 44.768 138.127,44.749 156.671,44.749 202.000 M107.916 202.833 C 107.916 228.546,107.935 239.065,107.958 226.208 C 107.982 213.352,107.982 192.315,107.958 179.458 C 107.935 166.602,107.916 177.121,107.916 202.833 " stroke="none" fill="#9ad6f7" fill-rule="evenodd"></path><path id="path5" d="M193.459 251.083 C 193.436 276.063,193.473 296.500,193.542 296.500 C 193.610 296.500,193.667 276.063,193.667 251.083 C 193.667 226.104,193.629 205.667,193.584 205.667 C 193.538 205.667,193.482 226.104,193.459 251.083 " stroke="none" fill="#6fa9d6" fill-rule="evenodd"></path></g></svg>
